assets/ios/swift/Icons.xcassets/download.imageset/download.svg

<svg width="24" height="24" viewBox="0 0 24 24" fill="none" xmlns="http://www.w3.org/2000/svg">
<path d="M12 15.575C11.8667 15.575 11.7417 15.5542 11.625 15.5125C11.5083 15.4708 11.4 15.4 11.3 15.3L7.7 11.7C7.51667 11.5167 7.425 11.2833 7.425 11C7.425 10.7167 7.51667 10.4833 7.7 10.3C7.88333 10.1167 8.12083 10.0208 8.4125 10.0125C8.70417 10.0042 8.94167 10.0917 9.125 10.275L11 12.15V5C11 4.71667 11.0958 4.47917 11.2875 4.2875C11.4792 4.09583 11.7167 4 12 4C12.2833 4 12.5208 4.09583 12.7125 4.2875C12.9042 4.47917 13 4.71667 13 5V12.15L14.875 10.275C15.0583 10.0917 15.2958 10.0042 15.5875 10.0125C15.8792 10.0208 16.1167 10.1167 16.3 10.3C16.4833 10.4833 16.575 10.7167 16.575 11C16.575 11.2833 16.4833 11.5167 16.3 11.7L12.7 15.3C12.6 15.4 12.4917 15.4708 12.375 15.5125C12.2583 15.5542 12.1333 15.575 12 15.575ZM6 20C5.45 20 4.97917 19.8042 4.5875 19.4125C4.19583 19.0208 4 18.55 4 18V16C4 15.7167 4.09583 15.4792 4.2875 15.2875C4.47917 15.0958 4.71667 15 5 15C5.28333 15 5.52083 15.0958 5.7125 15.2875C5.90417 15.4792 6 15.7167 6 16V18H18V16C18 15.7167 18.0958 15.4792 18.2875 15.2875C18.4792 15.0958 18.7167 15 19 15C19.2833 15 19.5208 15.0958 19.7125 15.2875C19.9042 15.4792 20 15.7167 20 16V18C20 18.55 19.8042 19.0208 19.4125 19.4125C19.0208 19.8042 18.55 20 18 20H6Z" fill="black"/>
</svg>

<svg xmlns="http://www.w3.org/2000/svg" width="24" height="24" fill="black" viewBox="0 0 24 24">
  <path d="M12 15.575c-.133 0-.258-.02-.375-.063a.877.877 0 0 1-.325-.212l-3.6-3.6a.948.948 0 0 1-.275-.7.95.95 0 0 1 .275-.7c.183-.183.42-.28.712-.288.292-.008.53.08.713.263L11 12.15V5c0-.283.096-.52.287-.713A.968.968 0 0 1 12 4c.283 0 .52.096.713.287.191.192.287.43.287.713v7.15l1.875-1.875c.183-.183.42-.27.713-.263.291.009.529.105.712.288a.948.948 0 0 1 .275.7.948.948 0 0 1-.275.7l-3.6 3.6c-.1.1-.208.17-.325.212a1.106 1.106 0 0 1-.375.063ZM6 20c-.55 0-1.02-.196-1.412-.587A1.926 1.926 0 0 1 4 18v-2c0-.283.096-.52.287-.713A.967.967 0 0 1 5 15c.283 0 .52.096.713.287.191.192.287.43.287.713v2h12v-2a.97.97 0 0 1 .288-.713A.968.968 0 0 1 19 15a.97.97 0 0 1 .712.287c.192.192.288.43.288.713v2c0 .55-.196 1.02-.587 1.413A1.926 1.926 0 0 1 18 20H6Z"/>
</svg>
